dist/svgs/unicons/line/n-a.svg

<svg xmlns="http://www.w3.org/2000/svg" viewBox="0 0 24 24"><path d="M19 6h-1a3 3 0 00-3 3v8a1 1 0 002 0v-4h3v4a1 1 0 002 0V9a3 3 0 00-3-3zm1 5h-3V9a1 1 0 011-1h1a1 1 0 011 1zM8 6a1 1 0 00-1 1v5.76L3.89 6.55A1 1 0 002 7v10a1 1 0 002 0v-5.76l3.11 6.21A1 1 0 008 18a.91.91 0 00.23 0A1 1 0 009 17V7a1 1 0 00-1-1zm4-2a1 1 0 00-1 1v14a1 1 0 002 0V5a1 1 0 00-1-1z"/></svg>

<svg xmlns="http://www.w3.org/2000/svg" viewBox="0 0 24 24"><path d="M19,6H18a3,3,0,0,0-3,3v8a1,1,0,0,0,2,0V13h3v4a1,1,0,0,0,2,0V9A3,3,0,0,0,19,6Zm1,5H17V9a1,1,0,0,1,1-1h1a1,1,0,0,1,1,1ZM8,6A1,1,0,0,0,7,7v5.76L3.89,6.55A1,1,0,0,0,2,7V17a1,1,0,0,0,2,0V11.24l3.11,6.21A1,1,0,0,0,8,18a.91.91,0,0,0,.23,0A1,1,0,0,0,9,17V7A1,1,0,0,0,8,6Zm4-2a1,1,0,0,0-1,1V19a1,1,0,0,0,2,0V5A1,1,0,0,0,12,4Z"/></svg>
